frontend/public/Images/Business/bps1_redline.svg

<svg width="160" height="19" viewBox="0 0 160 19" fill="none" xmlns="http://www.w3.org/2000/svg">
<path d="M0 0.000827789C6.36709 4.16694 12.9596 6.96539 19.5633 9.4903L24.533 11.2367L29.5253 12.7306C32.8497 13.8247 36.2079 14.4139 39.5549 15.2134C52.9765 18.1381 66.4882 19.1481 79.9775 18.9798C86.7164 18.6221 93.4667 18.4327 100.194 17.3807C103.553 16.8757 106.922 16.6022 110.269 15.8868C113.616 15.2134 116.963 14.4981 120.31 13.7406L125.325 12.6044C126.993 12.1204 128.66 11.6786 130.317 11.1525L140.279 8.08056C146.894 5.70293 153.464 2.98865 160 0.000827789C153.261 0.674137 146.601 2.02076 139.918 2.9676L129.9 4.31423C128.232 4.52464 126.564 4.79817 124.908 5.0717L119.904 5.59773C116.569 5.91334 113.233 6.27104 109.908 6.67081C106.573 7.02851 103.237 7.1758 99.9127 7.44933C93.2526 8.12264 86.5812 8.16472 79.9211 8.50138C66.5784 8.66971 53.2582 8.29097 39.938 7.04955C36.6136 6.7129 33.2779 6.37624 29.9535 5.8923L24.9613 5.24003L19.969 4.37735C13.2976 3.30426 6.64882 1.89451 0 0.000827789Z" fill="#E50012"/>
</svg>

<svg width="160" height="19" fill="none" xmlns="http://www.w3.org/2000/svg"><path d="M0 0c6.367 4.167 12.96 6.965 19.563 9.49l4.97 1.747 4.992 1.494c3.325 1.094 6.683 1.683 10.03 2.482 13.422 2.925 26.933 3.935 40.423 3.767 6.738-.358 13.489-.547 20.216-1.6 3.359-.504 6.728-.778 10.075-1.493a427.32 427.32 0 0010.041-2.146l5.015-1.137c1.668-.484 3.335-.925 4.992-1.451l9.962-3.072C146.894 5.703 153.464 2.989 160 0c-6.739.673-13.399 2.02-20.082 2.967L129.9 4.314c-1.668.21-3.336.484-4.992.758l-5.004.526a397.56 397.56 0 00-9.996 1.073c-3.335.358-6.671.505-9.995.778-6.66.674-13.332.716-19.992 1.052-13.343.169-26.663-.21-39.983-1.451-3.324-.337-6.66-.674-9.985-1.158l-4.992-.652-4.992-.863C13.298 3.304 6.649 1.895 0 .001z" fill="#E50012"/></svg>
